svg/UnitedNationsOCHA-Humanitarian/food_NFI_tarpaulin_icon.svg

<svg xmlns="http://www.w3.org/2000/svg" viewBox="0 0 32 32" enable-background="new 0 0 32 32"><path fill="#407cca" d="m19.698 27.862l5.241-5.681v-8.288h-17.878v14.11h12.512l.125-.138m3.972-5.563l-4.144 4.488v-4.488h4.144m-15.762-7.555h16.181v6.704h-5.419v5.699h-10.762v-12.403m4.078 2.402c0-.911-.734-1.652-1.644-1.652-.913 0-1.65.741-1.65 1.652 0 .907.737 1.646 1.65 1.646.909 0 1.644-.739 1.644-1.646m-2.419 0c0-.429.344-.777.771-.777.428 0 .775.348.775.777 0 .422-.347.773-.775.773-.427 0-.771-.352-.771-.773m6.172-10.407c.303.606 1.662 3.783 1.662 4.239 0 2.491-3.325 2.491-3.325 0 .0001-.456 1.363-3.788 1.663-4.239m4.35-2.739c.3.603 1.663 3.78 1.663 4.236 0 2.491-3.325 2.491-3.325 0 0-.456 1.359-3.784 1.662-4.236m-8.722 0c.303.603 1.663 3.78 1.663 4.236 0 2.491-3.325 2.491-3.325 0 0-.456 1.359-3.784 1.662-4.236"/></svg>

<?xml version="1.0" encoding="utf-8"?>
<!-- Generator: Adobe Illustrator 16.0.3, SVG Export Plug-In . SVG Version: 6.00 Build 0)  -->
<!DOCTYPE svg PUBLIC "-//W3C//DTD SVG 1.1//EN" "http://www.w3.org/Graphics/SVG/1.1/DTD/svg11.dtd">
<svg version="1.1" id="Layer_1" xmlns="http://www.w3.org/2000/svg" xmlns:xlink="http://www.w3.org/1999/xlink" x="0px" y="0px"
	 width="32px" height="32px" viewBox="0 0 32 32" enable-background="new 0 0 32 32" xml:space="preserve">
<path fill="#407CCA" d="M19.698,27.862l5.241-5.681v-8.288H7.061V28h12.512L19.698,27.862z M23.67,22.299l-4.144,4.488v-4.488H23.67
	z M7.908,14.744h16.181v6.704H18.67v5.699H7.908V14.744z M11.986,17.146c0-0.911-0.734-1.652-1.644-1.652
	c-0.913,0-1.65,0.741-1.65,1.652c0,0.907,0.737,1.646,1.65,1.646C11.251,18.792,11.986,18.053,11.986,17.146z M9.567,17.146
	c0-0.429,0.344-0.777,0.771-0.777c0.428,0,0.775,0.348,0.775,0.777c0,0.422-0.347,0.773-0.775,0.773
	C9.911,17.919,9.567,17.567,9.567,17.146z M15.739,6.739c0.303,0.606,1.662,3.783,1.662,4.239c0,2.491-3.325,2.491-3.325,0
	C14.077,10.522,15.439,7.19,15.739,6.739z M20.089,4c0.3,0.603,1.663,3.78,1.663,4.236c0,2.491-3.325,2.491-3.325,0
	C18.427,7.78,19.786,4.452,20.089,4z M11.367,4c0.303,0.603,1.663,3.78,1.663,4.236c0,2.491-3.325,2.491-3.325,0
	C9.705,7.78,11.064,4.452,11.367,4z"/>
</svg>
